X: 1
T: The Abbey Reel
T:  Transcribed from an O'Neills Session , NY 11/12/07
M: 8/8
L: 1/8
Q: 400
R: Reel / Barn dance
K: Dmix
|: A3 (BA2) GE | A2 GABd3 | A3 (BA2) GE |GEDE GAdB :|
| efge a4 | gabg aged |efge a2ga | b2af fgfd |
| efge agbg | agbg ageg |d^deg a4 | agef gedc |
|: A3 (BA2) GE | A2 GABd3 | A3 (BA2) GE |GEDE GAdB :|
| efge a4 | gabg aged |efge a2ga | b2af fgfd |
| efge agbg | agbg ageg |dege a2ge | gfeg fdcB|
|: A3 (BA2) GE | A2 GABd3 | A3 (BA2) GE |GEDE GAdB :|
| efge a4 | gabg aged |efge a2ga | b2af fgfd |
| efge agbg | agbg ageg |dege a2ga | bgaf gedB|
